src/assets/images/mobile/Whatsapp.svg

<svg width="24" height="24" viewBox="0 0 24 24" fill="none" xmlns="http://www.w3.org/2000/svg">
<path d="M12.0152 0C5.40739 0 0.028184 5.37405 0.0257838 11.9813C0.0245836 14.0933 0.577819 16.1551 1.62672 17.9719L0 24L6.27952 22.5164C8.03049 23.4716 10.0016 23.973 12.0082 23.9742H12.0129C18.6195 23.9742 23.9964 18.599 24 11.993C24.0024 8.79017 22.7568 5.77888 20.4934 3.51328C18.23 1.24888 15.2219 0.0012 12.0152 0ZM12.0129 2.4C14.5763 2.4012 16.9854 3.40056 18.7964 5.21016C20.6073 7.02216 21.6022 9.42983 21.5998 11.9906C21.5974 17.2754 17.2983 21.5742 12.0105 21.5742C10.4108 21.573 8.82615 21.1714 7.43041 20.4094L6.62174 19.9688L5.72868 20.1797L3.36595 20.7375L3.94257 18.5953L4.20275 17.6344L3.70583 16.7719C2.86815 15.3223 2.42482 13.6649 2.42602 11.9813C2.42842 6.69885 6.72877 2.4 12.0129 2.4ZM7.77263 6.45C7.57221 6.45 7.24816 6.525 6.97334 6.825C6.69851 7.1238 5.92323 7.84749 5.92323 9.32109C5.92323 10.7947 6.99678 12.2191 7.14679 12.4195C7.2956 12.6187 9.219 15.7383 12.2637 16.9383C14.7935 17.9355 15.3074 17.7387 15.857 17.6883C16.4067 17.6391 17.6302 16.9652 17.8799 16.2656C18.1295 15.566 18.1301 14.9642 18.0557 14.8406C17.9813 14.7158 17.7814 14.6414 17.4814 14.4914C17.1826 14.3414 15.7099 13.6184 15.4351 13.5188C15.1603 13.4192 14.9593 13.3688 14.76 13.6688C14.5608 13.9688 13.9883 14.6414 13.8131 14.8406C13.6378 15.041 13.4638 15.068 13.1638 14.918C12.8638 14.7668 11.8991 14.4497 10.7542 13.4297C9.86369 12.6365 9.26282 11.6578 9.0876 11.3578C8.91359 11.059 9.0712 10.8949 9.22121 10.7461C9.35562 10.6117 9.5189 10.3963 9.66891 10.2211C9.81773 10.0459 9.86933 9.92107 9.96894 9.72187C10.0686 9.52267 10.0176 9.34688 9.94316 9.19688C9.86875 9.04688 9.28606 7.5678 9.01963 6.975C8.79521 6.477 8.55818 6.46543 8.34456 6.45703C8.17055 6.44983 7.97185 6.45 7.77263 6.45Z" fill="#1A1F26"/>
</svg>

<svg width="24" height="24" fill="none" xmlns="http://www.w3.org/2000/svg"><path d="M12.015 0C5.407 0 .028 5.374.025 11.981a11.955 11.955 0 0 0 1.602 5.99L0 24l6.28-1.484a11.98 11.98 0 0 0 5.728 1.458h.005c6.606 0 11.983-5.375 11.987-11.981a11.906 11.906 0 0 0-3.507-8.48A11.91 11.91 0 0 0 12.015 0zm-.002 2.4c2.563.001 4.972 1 6.783 2.81a9.515 9.515 0 0 1 2.804 6.78c-.003 5.285-4.302 9.584-9.59 9.584a9.6 9.6 0 0 1-4.58-1.165l-.808-.44-.893.21-2.363.559.577-2.143.26-.96-.497-.863a9.575 9.575 0 0 1-1.28-4.79C2.428 6.698 6.729 2.4 12.013 2.4zm-4.24 4.05a1.1 1.1 0 0 0-.8.375c-.274.299-1.05 1.022-1.05 2.496s1.074 2.898 1.224 3.098c.149.2 2.072 3.32 5.117 4.52 2.53.997 3.043.8 3.593.75.55-.05 1.773-.724 2.023-1.423.25-.7.25-1.302.176-1.425-.075-.125-.275-.2-.575-.35-.298-.15-1.771-.873-2.046-.972-.275-.1-.476-.15-.675.15-.2.3-.772.972-.947 1.172-.175.2-.35.227-.65.077-.3-.151-1.264-.468-2.409-1.488-.89-.793-1.491-1.772-1.666-2.072-.174-.299-.017-.463.133-.612.135-.134.298-.35.448-.525.149-.175.2-.3.3-.5.1-.198.049-.374-.026-.524-.074-.15-.657-1.63-.923-2.222-.225-.498-.462-.51-.675-.518-.174-.007-.373-.007-.572-.007z" fill="#1A1F26"/></svg>
